icons/PaperclipDiagonal_filled.svg

<svg width="24" height="24" viewBox="0 0 24 24" fill="none" xmlns="http://www.w3.org/2000/svg">
<path fill-rule="evenodd" clip-rule="evenodd" d="M10.6161,3.61614c2.145,-2.14501 5.6227,-2.14501 7.7677,0c2.1451,2.14501 2.1451,5.62276 0.0001,7.76776l-5.5,5.5c-1.3166,1.3166 -3.45124,1.3166 -4.76782,0c-1.31658,-1.3166 -1.31659,-3.4512 -0.00001,-4.7677l5.50003,-5.50008c0.4881,-0.48816 1.2796,-0.48816 1.7677,-0.00001c0.4882,0.48816 0.4882,1.27961 0.0001,1.76777l-5.50006,5.50002c-0.34027,0.3403 -0.34027,0.892 0.00001,1.2322c0.34025,0.3403 0.89195,0.3403 1.23225,0l5.5,-5.49996c1.1687,-1.16869 1.1687,-3.06353 0,-4.23223c-1.1687,-1.1687 -3.0636,-1.1687 -4.2323,0l-5.49996,5.49999c-1.99713,1.9971 -1.99714,5.2351 -0.00001,7.2322c1.99712,1.9972 5.23507,1.9972 7.23227,0l6,-6c0.4881,-0.4881 1.2796,-0.4881 1.7678,0c0.4881,0.4882 0.4881,1.2796 0,1.7678l-6.0001,6c-2.9734,2.9734 -7.7943,2.9734 -10.76774,0c-2.97344,-2.9734 -2.97343,-7.7943 0.00001,-10.76776z" fill="#002B51"/>
</svg>

<svg width="24" height="24" viewBox="0 0 24 24" fill="none" xmlns="http://www.w3.org/2000/svg">
<path fill-rule="evenodd" clip-rule="evenodd" d="M10.6161 3.61614C12.7611 1.47113 16.2388 1.47113 18.3838 3.61614C20.5289 5.76115 20.5289 9.2389 18.3839 11.3839L12.8839 16.8839C11.5673 18.2005 9.43266 18.2005 8.11608 16.8839C6.7995 15.5673 6.79949 13.4327 8.11607 12.1162L13.6161 6.61612C14.1042 6.12796 14.8957 6.12796 15.3838 6.61611C15.872 7.10427 15.872 7.89572 15.3839 8.38388L9.88384 13.8839C9.54357 14.2242 9.54357 14.7759 9.88385 15.1161C10.2241 15.4564 10.7758 15.4564 11.1161 15.1161L16.6161 9.61614C17.7848 8.44745 17.7848 6.55261 16.6161 5.38391C15.4474 4.21521 13.5525 4.21521 12.3838 5.38391L6.88384 10.8839C4.88671 12.881 4.8867 16.119 6.88383 18.1161C8.88095 20.1133 12.1189 20.1133 14.1161 18.1161L20.1161 12.1161C20.6042 11.628 21.3957 11.628 21.8839 12.1161C22.372 12.6043 22.372 13.3957 21.8839 13.8839L15.8838 19.8839C12.9104 22.8573 8.0895 22.8573 5.11606 19.8839C2.14262 16.9105 2.14263 12.0896 5.11607 9.11614L10.6161 3.61614Z" fill="#002B51"/>
</svg>
